!!!OTL: Rautenstraeuchlein oder Traum eines Ehemannes
!!!ARE: Europa, Mitteleuropa, Deutschland
!!!SCT: A0245
!!!YEM: Copyright 1995, estate of Helmut Schaffrath.
**kern
*ICvox
*Ivox
!! Mixed meters:  4/2; 6/2
*M4/2
*k[b-]
*F:
{2f
=1
1cc
1a
=2
1b-
1cc
=3
1a
2a}
{2f
=4
1cc
1a
=5
*M6/2
1b-
2cc
1cc
4b-
4a
=6
*M4/2
1g
2f}
{2c
=7
2f
2g
2a
2b-
=8
2.cc
4b-
2a}
{2a
=9
2g
2g
2g
2g
=10
1d
1g
=11
2.f
8e
8d
2c}
{2c
=12
2f
2g
2a
2b-
=13
2.cc
4b-
2a}
{2a
=14
2g
2g
2g
2g
=15
1d
1g
=16
1f
2r}
==
!!!AGN: Romanze, Ballade, Lied
!! Forster II 1540 No. 21.
!!!ONB: ESAC (Essen Associative Code) Database: ALTDEU
!!!AMT: irregular
!!!AIN: vox
!!!EED: Helmut Schaffrath
!!!EEV: 1.0
*-
